X:1055
T: Molly Maguire
T: Mail\'i Nig Uidhir
S: B.Breathnach:"Ceol Rince na hEireann" IV/138
Z: B.Black
L: 1/8
M: 4/4
R: reel
K: G
G2 Dc BGdB|cBAB cded|(3efg dg BG G2|agba (3gfe dB|
G2 Dc BGdB|cBAB cded|(3efg dg BG G2|agba (3ggg g2 ||
d2 Bd egfa|gdBG FAFD|EGFA GBdg|agab (3aaa ag|
eg g2 dg g2|agbB cBAG|(3EFG DG B,GDG|AGBA (3GGG G2 ||
